X:1
T:Title
%%score { ( 1 3 ) | ( 2 4 ) }
L:1/8
M:6/8
K:Eb
V:1 treble nm="Grand Piano"
V:3 treble 
V:2 bass 
V:4 bass 
V:1
 z3 z2[Q:1/4=87] E | GGG GFE | GGG G2 [FA] | [GB][EG][GB] [Ac][GB][EG] | [EG]3 [DF]2 [EG] | %5
 [FA][FA][FA] [FA][EG][DF] | [CE][CE][DF] G2 G | FG=A d2 c |[M:5/8] [B,B-]3 [AB]2 |[M:1/8] B | %10
[M:3/4] [GB][Gc] [GB] G2 E | B6 | [DAB][DAc] [DAB] A2 F | B6 | cc d e2 c | %15
[M:13/16] [EGB][B,EG][B,FA][EGB]-<[EGB][EAc]3/2 |[M:3/4] [EGB][EGB] [G,E] [B,EG]2 [A,DF] | %17
[M:5/8] [G,B,E]-[G,B,E]- [G,B,E]3 |] %18
V:2
 z3 z2 [E,G,] | [E,B,E][E,B,E][E,B,E] [E,B,E][E,A,B,][E,G,B,] | %2
 [E,B,E][E,B,E][E,B,E] [E,B,E]2 [E,B,] | [E,E][E,B,][E,E] [E,E]2 [E,B,] | %4
 [B,,B,]3- [B,,B,]2 [B,,B,] | [B,,B,][B,,B,][B,,B,] [B,,B,][B,,B,][B,,A,] | %6
 [C,G,][C,G,][B,,B,] [E,B,E]2 [E,B,E] | [F,=A,E][F,B,E][F,CE] [F,A,E]2 [F,A,E] | %8
[M:5/8] z2 F[K:treble] D2 |[M:1/8] [B,DA] |[M:3/4][K:bass] [E,E][E,E] [E,E] [E,B,E]2 [G,B,] | %11
 [F,A,D]2 [F,A,] [F,A,]2 [F,A,D] | B,,B,, B,, [F,B,D]2 [A,B,D] | [G,B,E]2 [F,A,] [E,G,]2 [E,G,E] | %14
 [A,E][A,E] [A,B,E] [A,CA]2 [A,EA] |[M:13/16][K:bass] E,E,E,E,-<E,A,,3/2 | %16
[M:3/4] B,,B,, C, B,,2 B,, |[M:5/8] E,-E,- E,3 |] %18
V:3
 x6 | x6 | x6 | x6 | x6 | x6 | x6 | x6 |[M:5/8] D2 z z2 |[M:1/8] x |[M:3/4] x6 | z2 D D2 B | x6 | %13
 z2 D E2 B | x6 |[M:13/16] x13/2 |[M:3/4] x6 |[M:5/8] x5 |] %18
V:4
 x6 | x6 | x6 | x6 | x6 | x6 | x6 | x6 |[M:5/8] B,,-B,,- B,,3[K:treble] |[M:1/8] x | %10
[M:3/4][K:bass] x6 | x6 | x6 | x6 | x6 |[M:13/16][K:bass] x13/2 |[M:3/4] x6 |[M:5/8] x5 |] %18

